!! 00000] TT[WS
!!!OTL: Yaochuan hong lai yishen hong
!!!ARE: Asia, China, Shanxi Hequ
!! Ethnic Group: Han
!! WII, 17 (1)
!!!SCT: J0419
!!!YEM: Copyright 1995, estate of Helmut Schaffrath.
**kern
*ICvox
*Ivox
*M2/4
*k[b-]
*F:
{8.dd
16dd
8ff
8dd
=1
8cc
4.a
=2
4dd
8ff
8dd
=3
8cc
4.a}
=4
{8.dd
16dd
8ff
8dd
=5
8cc
4a
8g
=6
8.d
16a
8g
8f
=7
8g
4.d}
==
!!!AGN: Shange, Shanqu. Qingge
!!!ONB: ESAC (Essen Associative Code) Database: CHINA
!!!AMT: simple duple
!!!AIN: vox
!!!EED: Helmut Schaffrath
!!!EEV: 1.0
*-
